X: 1808
T: Off She Goes in the North
%
P: Mrs Seller's Favourite
C:C. Grant
R:Jig (4x32)
B:RSCDS 18-8
Z:Anselm Lingnau <anselm@strathspey.org>
M:6/8
L:1/8
K:G
B |\
"G"G2D DB,D | G,2D G2B | GBd "Em"g2B | "A7"g2B A2B |\
"G"G2D DB,D | G,2D G2B | GBd g2B | "D7"BAF "G"G2 :|
B |\
"G"dBd g2g | b2g d2B | "D/A"cBc "G/B"d2B | "Am/C"AAA "D"A2 G |\
"G"GBd g2g | b2g d2B | "Am"cBc "D7"d2B | "G"GGG G2 ||
B |\
"G"dBd g2g | b2g d2B | "Am"cBc "G/B"d2B | "Am/C"AAA "D"A2 G |\
"G"BdB "A"cec | "G"d2B g2d | b2g d2B | "G"GG"D7"G "G"G2 |]
%
P: Mrs Blair's Jig
Z:Bruce Shawyer
M:6/8
L:1/8
R:Jig
K:G
B/c/ |\
"G"dBG GBG | "D"AFD DFD | "C"EFG "D"ABc | "G"BAG "D"FED |
"G"dBG "Em"GBG | "D"AFD DFD | "C"EFG "D"AFD | "G"G3-G2 :: B/c/ |
"G"dBd dBd | "C"gfg "G"dBG | "C"cec "G"BdB | "Am"ABG "D"FED |
"G"dBd dBd | "C"gfg "G"dBG | "C"EFG "D"AFD | "G"G3-G2 :|
%%center Book18/1808-Off_She_Goes_in_the_North.abc

%%sep 1 1 500
%%sep 1 1 500

